X:001
T:Dame Durden TS.001
M:6/8
L:1/8
Q:3/8=110
S:Thomas Sands’ MS,1810,Lincolnshire
R:glee
N:Repeat indications in MS often erratic
O:England;Lincolnshire
Z:vmp.Ruairidh Greig, 2011
K:Am
e| e2ee2g| c2cc2c| eee e2c| d3z2d|
e2ee2e| c2BA2^G| A2A^G2B| A3z2:|
|:c| e2ee2g| c2cc2c|\
eeee2 c| d3z2d|
e2ee2e| c2BA2^G| A2A^G2B| A3z2|
|:z| z2z(e>g)z| z2ze>gz| z2ze>gz| z2ze>g g|
eeee2e| d3z2d| e2ee2e| c2BA2^G|
AAA^G2B| A3z2d| e2ee2g| g2ec2e| fffd2d| e3z2:|]

